X:1
T:Op 82
T:Op. 82.
T:Cornelius Gurlitt
C:Cornelius Gurlitt
%%score { 1 | 2 }
L:1/8
Q:1/4=116
M:2/4
K:C
V:1 treble nm="Piano" snm="Pno."
V:2 bass 
V:1
!mf!"^Allegretto" (!1!A/!5!a/g/f/ e/d/!3!c/B/ | A2) z2 | (!2!^G/A/B/A/ G) z | (^G/A/B/A/ G) z | %4
 (!1!A/a/g/f/ e/d/!3!c/B/ | A2) z2 | (!3!B/c/d/) z/ (!2!^G/A/B/) z/ | (!3!A/B/c/B/ A) z :: %8
!f! (!1!c/!5!c'/b/a/ g/f/!3!e/d/ | c2) z2 | (!2!B/c/d/c/ B) z | (B/c/d/c/ B) z | %12
 (c/c'/b/a/ g/f/e/d/ | c2) z2 | (B/c/d/) z/ (^G/A/B/) z/ | (A/B/c/B/ A) z :| %16
V:2
!mf! !5!!3![A,C]2 z2 | z [A,C] [A,C][A,C] | !4!!2![B,D]2 z [B,D] | [B,D]2 z [B,D] | %4
 !3!!1![A,C]2 z2 | z [A,C] [A,C][A,C] | [DF] z !5!!2!!1![E,B,D] z | !3!!1![A,C]2 z2 :: %8
!f! !4!!2![CE]2 z2 | z [CE] [CE][CE] | !3!!1![DF]2 z [DF] | [DF]2 z [DF] | [CE]2 z2 | %13
 z [CE] [CE][CE] | [DF] z [E,B,D] z | [A,C]2 z2 :| %16

